X:70
T:Marshmellow Morning
M:6/8
L:1/8
C:© Paul Gitlitz 1997
R:Jig
B:Giblitz Fancy
N:A pleasant time of pelting friends with marshmallows while staying at Frank Clayton's during FolkLife.
K:Bm
"Bm"fBB fBB|"G"gfg efg|"Bm"fBB fBB|"A"a3 efg|!
"Bm"fBB bBB|"A"aBB "(G)"gBB|"Bm"fgf ede|"A"f/g/ag fed:|!
|:"Bm"FBB dBF|"G"GBB dBG|"Em"Aef "G"gfe|"Bm"ded "A"cBA|!
"Bm"FBB dBF|"G"GBB dBd|"Em"efg "D"fed|"Bm"fba "G"gfe:|]
